goit-fe-course/HW-11_Gulp/build/images/icons/icons-sprite.svg

<svg aria-hidden="true" style="position:absolute;width:0;height:0" xmlns="http://www.w3.org/2000/svg" overflow="hidden"><defs><symbol id="home-icon" viewBox="0 0 33 32"><path d="M33.032 17.032c0 .855-.694 1.547-1.548 1.547-.408 0-.776-.16-1.053-.418l-.003.004L16.516 4.254 2.635 18.134a1.548 1.548 0 11-2.159-2.218L15.4.991a1.547 1.547 0 011.116-.475h.001c.027 0 .054 0 .082.002l.012.001.07.005.004.001c.379.041.716.219.963.483l.001-.001 6.092 6.092V5.677a1.547 1.547 0 113.096 0v4.519l5.779 5.779-.004.004c.258.277.419.645.419 1.053zm-3.097 2.581v10.839c0 .855-.694 1.548-1.548 1.548H25.29V19.613h-6.194V32H4.644a1.549 1.549 0 01-1.548-1.548V19.613L16.515 6.194l13.419 13.419zm-16 0H7.741v6.194h6.194v-6.194z"/></symbol><symbol id="twitter-icon" viewBox="0 0 38 32"><path d="M25.473.874c2.959-.052 4.534 1.025 6.038 2.396 1.277-.109 2.937-.822 3.914-1.319l.95-.519c-.559 1.508-1.315 2.689-2.479 3.587-.259.198-.515.467-.839.593v.019c1.658-.016 3.025-.765 4.324-1.171v.019c-.682 1.084-1.606 2.185-2.591 2.973l-1.193.947c.022 1.756-.026 3.431-.353 4.906-1.908 8.575-6.964 14.396-14.966 16.89-2.874.895-7.517 1.263-10.81.445-1.632-.404-3.107-.863-4.49-1.468-.769-.336-1.482-.7-2.163-1.116l-.671-.407c.742.022 1.612.227 2.441.092.752-.121 1.488-.089 2.182-.24 1.728-.38 3.263-.881 4.583-1.655.641-.375 1.615-.815 2.07-1.356-.858.015-1.636-.185-2.273-.409-2.471-.873-3.91-2.477-4.847-4.887.749.083 2.906.278 3.411-.148-.943-.052-1.849-.598-2.497-1.004-1.988-1.244-3.609-3.329-3.597-6.54l.783.371c.5.211 1.008.323 1.603.447.252.052.755.199 1.044.092h-.038c-.384-.447-1.011-.745-1.398-1.226-1.276-1.584-2.47-4.023-1.715-6.929.192-.737.496-1.388.82-1.988l.038.017c.148.311.48.54.689.8.652.807 1.455 1.533 2.273 2.173 2.79 2.182 5.302 3.523 9.337 4.515 1.024.253 2.207.445 3.43.447-.343-.999-.233-2.618.036-3.585.681-2.435 2.157-4.188 4.324-5.129a9.364 9.364 0 011.696-.521c.311-.036.621-.074.932-.111z"/></symbol><symbol id="pinterest-icon" viewBox="0 0 26 32"><path d="M11.14 20.743c-.257 1.025-.517 2.1-.785 3.151-.265 1.036-.498 2.087-.884 3.04-.639 1.577-1.45 3.1-2.514 4.334-.708.821-.558.494-.77.449-.162-.034-.176-.193-.208-.425-.174-1.253-.055-2.702.009-4.11.074-1.605.411-2.939.725-4.272.596-2.54 1.164-5.03 1.766-7.586.039-.17.148-.45.111-.548-.273-.71-.45-1.348-.528-2.094a6.66 6.66 0 01.171-2.391c.341-1.302 1.124-2.455 2.331-2.878.768-.266 1.618-.145 2.135.162.532.319.897.821 1.067 1.534.182.757.048 1.663-.098 2.327-.329 1.5-.761 2.626-1.153 4.074-.194.718-.415 1.455-.233 2.23a2.598 2.598 0 001.042 1.569c.524.382 1.145.59 2 .56 1.511-.053 2.561-1.019 3.263-1.93 1.124-1.458 1.803-3.426 2.062-5.767.082-.756.144-1.623.086-2.479-.108-1.58-.602-2.852-1.387-3.836-.746-.939-1.804-1.685-3.092-2.106-1.276-.416-3.042-.555-4.612-.287-2.853.489-4.864 2.11-6.049 4.348-.62 1.172-1.03 2.519-1.03 4.197 0 1.294.319 2.295.834 3.077.164.247.404.452.564.735.228.401-.034.998-.146 1.433-.135.523-.15 1.246-.761 1.258-.254.005-.571-.18-.785-.299-1.606-.887-2.581-2.502-2.981-4.596-.244-1.273-.242-2.756 0-3.985a11.36 11.36 0 011.153-3.177C3.445 4.605 4.913 3.126 6.7 2.07 8.074 1.258 9.623.688 11.509.413c.625-.091 1.273-.129 1.975-.162a11.87 11.87 0 015.324.997 10.884 10.884 0 013.668 2.641c1.031 1.126 1.782 2.436 2.257 4.073.249.852.49 1.762.49 2.815 0 1.056-.223 1.985-.379 2.914-.583 3.481-2.239 6.327-4.724 7.948a8.206 8.206 0 01-2.159.996c-.821.239-1.758.418-2.761.348-.974-.066-1.771-.331-2.441-.71-.665-.375-1.223-.836-1.62-1.531z"/></symbol><symbol id="instagram-icon" viewBox="0 0 32 32"><path d="M27.938 31.754H4.307a3.939 3.939 0 01-3.938-3.94V4.184A3.94 3.94 0 014.307.244h23.631a3.939 3.939 0 013.938 3.94v23.63a3.94 3.94 0 01-3.938 3.94zM16.123 9.894a6.1 6.1 0 00-5.536 3.545h-.006c-.01.022-.017.046-.027.068-.058.129-.108.262-.158.395-.023.065-.049.128-.07.192a5.51 5.51 0 00-.117.418c-.017.065-.037.13-.052.197a6.11 6.11 0 00-.075.453c-.009.062-.021.122-.028.185a6.104 6.104 0 006.069 6.757 6.104 6.104 0 006.069-6.757c-.007-.063-.02-.123-.028-.185a6.11 6.11 0 00-.075-.453c-.015-.066-.034-.132-.052-.197a4.87 4.87 0 00-.117-.418c-.021-.064-.047-.127-.07-.192a6.132 6.132 0 00-.158-.395c-.01-.022-.017-.046-.027-.068h-.006a6.1 6.1 0 00-5.536-3.545zm12.209-4.529c0-.87-.705-1.574-1.575-1.574h-3.151c-.87 0-1.575.704-1.575 1.574v3.152c0 .87.705 1.575 1.575 1.575h3.151c.87 0 1.575-.705 1.575-1.575V5.365zm0 8.074h-2.905c.224.816.345 1.675.345 2.561 0 5.329-4.32 9.648-9.649 9.648S6.474 21.329 6.474 16c0-.886.121-1.745.345-2.561H3.914v13.194c0 .871.705 1.577 1.575 1.577h21.268c.87 0 1.575-.705 1.575-1.577V13.439z"/></symbol><symbol id="facebook-icon" viewBox="0 0 16 32"><path d="M14.879.245v5.072s-3.738-.373-4.674 1.06c-.512.783-.208 3.077-.254 4.724h4.959c-.418 1.925-.719 3.23-1.028 4.896H9.924v15.759h-6.87V16.059H.131v-4.958h2.891c.148-3.626.203-7.217 2.005-9.046C7.05-.002 8.981.246 14.879.246z"/></symbol><symbol id="line_graph-icon" viewBox="0 0 32 32"><path d="M30.5 32h-29A1.5 1.5 0 010 30.5V1.499A1.5 1.5 0 011.5 0h29A1.5 1.5 0 0132 1.499V30.5a1.5 1.5 0 01-1.5 1.5zM29 3H3v26h26V3zM5.215 16.239v-.002l4-2.498a1.497 1.497 0 011.625.035l.006-.008 6.631 4.42 7.638-5.391a1.5 1.5 0 111.763 2.426h.001l-8.501 6c-.246.179-.55.284-.878.284-.321 0-.618-.101-.861-.272l-6.657-4.438-3.135 1.96a1.5 1.5 0 11-1.632-2.516z"/></symbol><symbol id="focus-icon" viewBox="0 0 32 32"><path d="M30.5 32h-29A1.5 1.5 0 010 30.5v-29A1.5 1.5 0 011.5 0h29A1.5 1.5 0 0132 1.5v29a1.5 1.5 0 01-1.5 1.5zM29 3H3v26h26V3zM6.5 4.5H12a1.5 1.5 0 110 3H7.5V12a1.5 1.5 0 01-3 0V4.5h2zM4.5 20a1.5 1.5 0 113 0v4.499l4.5.001a1.5 1.5 0 110 3H4.5V20zM20 4.5h7.5V12a1.5 1.5 0 01-3 0V7.5H20a1.5 1.5 0 010-3zm0 20v-.001h4.5V20a1.5 1.5 0 113 0v7.5H20a1.5 1.5 0 010-3z"/></symbol><symbol id="computer_ok-icon" viewBox="0 0 32 32"><path d="M30 25h-9.5v2.499l2 2.001v.5h-13v-.5l2-2.001V25H2a1.5 1.5 0 01-1.5-1.501V3.5A1.5 1.5 0 012 2h28a1.5 1.5 0 011.5 1.5v19.999A1.5 1.5 0 0130 25zm-.5-21h-27v17h27V4zM13 11c.414 0 .789.168 1.061.439l.939.939 2.939-2.939a1.5 1.5 0 112.122 2.122l-4 4a1.499 1.499 0 01-2.122 0l-2-2.001A1.5 1.5 0 0113 11z"/></symbol><symbol id="book-icon" viewBox="0 0 32 32"><path d="M31.065 25.889l-14.471 5.988a1.489 1.489 0 01-1.188 0L.935 25.889A1.5 1.5 0 010 24.5v-23A1.5 1.5 0 012.073.114h.001l.002.001.013.005L16 5.876 29.911.12l.013-.005.003-.001A1.5 1.5 0 0132 1.5v23a1.5 1.5 0 01-.935 1.389zM14.5 8.503L3 3.744v19.753l11.5 4.759V8.503zM29 3.744L17.5 8.503v19.753L29 23.497V3.744zm-9.121 6.89l5.5-2.5a1.5 1.5 0 011.242 2.731l-5.5 2.5a1.5 1.5 0 01-1.242-2.731zm0 5.5l5.5-2.5a1.5 1.5 0 111.242 2.731l-5.5 2.5a1.5 1.5 0 01-1.242-2.731zm0 5.5l5.5-2.5a1.5 1.5 0 011.242 2.731l-5.5 2.5a1.5 1.5 0 01-1.242-2.731zM6 8c.221 0 .431.048.621.134l5.5 2.5a1.501 1.501 0 01-1.242 2.731l-5.5-2.5A1.5 1.5 0 016 8zm0 5.5c.221 0 .431.048.621.134l5.5 2.5a1.501 1.501 0 01-1.242 2.731l-5.5-2.5A1.5 1.5 0 016 13.5zM6 19c.221 0 .431.048.621.134l5.5 2.5a1.501 1.501 0 01-1.242 2.731l-5.5-2.5A1.5 1.5 0 016 19z"/></symbol><symbol id="alarm-icon" viewBox="0 0 32 32"><path d="M30.74 10.003a15.723 15.723 0 00-8.243-8.243c1-.787 2.258-1.26 3.629-1.26A5.874 5.874 0 0132 6.374a5.846 5.846 0 01-1.26 3.629zM30.5 16.5c0 3.852-1.512 7.343-3.963 9.94l2.029 2.028a1.483 1.483 0 11-2.098 2.097l-2.178-2.178A14.426 14.426 0 0116 31c-3.079 0-5.928-.966-8.276-2.603L5.561 30.56a1.5 1.5 0 01-2.122-2.121l2.012-2.012C3.008 23.832 1.5 20.345 1.5 16.5 1.5 8.492 7.992 2 16 2s14.5 6.492 14.5 14.5zM16 5C9.649 5 4.5 10.148 4.5 16.5 4.5 22.851 9.649 28 16 28s11.5-5.149 11.5-11.5C27.5 10.148 22.351 5 16 5zm6 13h-6a1.5 1.5 0 01-1.5-1.5v-8a1.5 1.5 0 013 0v6.499H22A1.5 1.5 0 0122 18zM1.287 10.205A5.964 5.964 0 010 6.5a6 6 0 016-6c1.4 0 2.685.483 3.706 1.287a16.057 16.057 0 00-8.419 8.418z"/></symbol><symbol id="cart-icon" viewBox="0 0 18 15"><path d="M17.726 3.663h.001l-2.475 5.5a.826.826 0 01-.697.485l-7.128.475.412 1.176H15.6a1.65 1.65 0 11-1.65 1.651h-7.7a1.65 1.65 0 11-1.65-1.651h1.491L2.915 2.225h-1.89a.825.825 0 010-1.65H3.5c.36 0 .663.232.776.553l.003-.001.48 1.373h12.216a.825.825 0 01.751 1.163zM5.337 4.15l1.525 4.357 7.089-.473 1.748-3.884H5.337z"/></symbol><symbol id="search-icon" viewBox="0 0 18 18"><path d="M17.317 14.983a1.65 1.65 0 01-2.334 2.333l-4.836-4.835A6.56 6.56 0 016.8 13.4a6.6 6.6 0 116.6-6.6 6.56 6.56 0 01-.919 3.347l4.836 4.836zM6.8 1.849a4.95 4.95 0 10.001 9.901 4.95 4.95 0 00-.001-9.9z"/></symbol></defs></svg>

<svg aria-hidden="true" style="position:absolute;width:0;height:0" xmlns="http://www.w3.org/2000/svg" overflow="hidden">
	<defs>
		<symbol id="home-icon" viewBox="0 0 33 32">
			<title>
				home-icon
			</title>
			<path d="M33.032 17.032c0 .855-.694 1.547-1.548 1.547-.408 0-.776-.16-1.053-.418l-.003.004L16.516 4.254 2.635 18.134a1.548 1.548 0 11-2.159-2.218L15.4.991a1.547 1.547 0 011.116-.475h.001c.027 0 .054 0 .082.002l.012.001.07.005.004.001c.379.041.716.219.963.483l.001-.001 6.092 6.092V5.677a1.547 1.547 0 113.096 0v4.519l5.779 5.779-.004.004c.258.277.419.645.419 1.053zm-3.097 2.581v10.839c0 .855-.694 1.548-1.548 1.548H25.29V19.613h-6.194V32H4.644a1.549 1.549 0 01-1.548-1.548V19.613L16.515 6.194l13.419 13.419zm-16 0H7.741v6.194h6.194v-6.194z" />
		</symbol>
		<symbol id="twitter-icon" viewBox="0 0 38 32">
			<title>
				twitter-icon
			</title>
			<path d="M25.473.874c2.959-.052 4.534 1.025 6.038 2.396 1.277-.109 2.937-.822 3.914-1.319l.95-.519c-.559 1.508-1.315 2.689-2.479 3.587-.259.198-.515.467-.839.593v.019c1.658-.016 3.025-.765 4.324-1.171v.019c-.682 1.084-1.606 2.185-2.591 2.973l-1.193.947c.022 1.756-.026 3.431-.353 4.906-1.908 8.575-6.964 14.396-14.966 16.89-2.874.895-7.517 1.263-10.81.445-1.632-.404-3.107-.863-4.49-1.468-.769-.336-1.482-.7-2.163-1.116l-.671-.407c.742.022 1.612.227 2.441.092.752-.121 1.488-.089 2.182-.24 1.728-.38 3.263-.881 4.583-1.655.641-.375 1.615-.815 2.07-1.356-.858.015-1.636-.185-2.273-.409-2.471-.873-3.91-2.477-4.847-4.887.749.083 2.906.278 3.411-.148-.943-.052-1.849-.598-2.497-1.004-1.988-1.244-3.609-3.329-3.597-6.54l.783.371c.5.211 1.008.323 1.603.447.252.052.755.199 1.044.092h-.038c-.384-.447-1.011-.745-1.398-1.226-1.276-1.584-2.47-4.023-1.715-6.929.192-.737.496-1.388.82-1.988l.038.017c.148.311.48.54.689.8.652.807 1.455 1.533 2.273 2.173 2.79 2.182 5.302 3.523 9.337 4.515 1.024.253 2.207.445 3.43.447-.343-.999-.233-2.618.036-3.585.681-2.435 2.157-4.188 4.324-5.129a9.364 9.364 0 011.696-.521c.311-.036.621-.074.932-.111z" />
		</symbol>
		<symbol id="pinterest-icon" viewBox="0 0 26 32">
			<title>
				pinterest-icon
			</title>
			<path d="M11.14 20.743c-.257 1.025-.517 2.1-.785 3.151-.265 1.036-.498 2.087-.884 3.04-.639 1.577-1.45 3.1-2.514 4.334-.708.821-.558.494-.77.449-.162-.034-.176-.193-.208-.425-.174-1.253-.055-2.702.009-4.11.074-1.605.411-2.939.725-4.272.596-2.54 1.164-5.03 1.766-7.586.039-.17.148-.45.111-.548-.273-.71-.45-1.348-.528-2.094a6.66 6.66 0 01.171-2.391c.341-1.302 1.124-2.455 2.331-2.878.768-.266 1.618-.145 2.135.162.532.319.897.821 1.067 1.534.182.757.048 1.663-.098 2.327-.329 1.5-.761 2.626-1.153 4.074-.194.718-.415 1.455-.233 2.23a2.598 2.598 0 001.042 1.569c.524.382 1.145.59 2 .56 1.511-.053 2.561-1.019 3.263-1.93 1.124-1.458 1.803-3.426 2.062-5.767.082-.756.144-1.623.086-2.479-.108-1.58-.602-2.852-1.387-3.836-.746-.939-1.804-1.685-3.092-2.106-1.276-.416-3.042-.555-4.612-.287-2.853.489-4.864 2.11-6.049 4.348-.62 1.172-1.03 2.519-1.03 4.197 0 1.294.319 2.295.834 3.077.164.247.404.452.564.735.228.401-.034.998-.146 1.433-.135.523-.15 1.246-.761 1.258-.254.005-.571-.18-.785-.299-1.606-.887-2.581-2.502-2.981-4.596-.244-1.273-.242-2.756 0-3.985a11.36 11.36 0 011.153-3.177C3.445 4.605 4.913 3.126 6.7 2.07 8.074 1.258 9.623.688 11.509.413c.625-.091 1.273-.129 1.975-.162a11.87 11.87 0 015.324.997 10.884 10.884 0 013.668 2.641c1.031 1.126 1.782 2.436 2.257 4.073.249.852.49 1.762.49 2.815 0 1.056-.223 1.985-.379 2.914-.583 3.481-2.239 6.327-4.724 7.948a8.206 8.206 0 01-2.159.996c-.821.239-1.758.418-2.761.348-.974-.066-1.771-.331-2.441-.71-.665-.375-1.223-.836-1.62-1.531z" />
		</symbol>
		<symbol id="instagram-icon" viewBox="0 0 32 32">
			<title>
				instagram-icon
			</title>
			<path d="M27.938 31.754H4.307a3.939 3.939 0 01-3.938-3.94V4.184A3.94 3.94 0 014.307.244h23.631a3.939 3.939 0 013.938 3.94v23.63a3.94 3.94 0 01-3.938 3.94zM16.123 9.894a6.1 6.1 0 00-5.536 3.545h-.006c-.01.022-.017.046-.027.068-.058.129-.108.262-.158.395-.023.065-.049.128-.07.192a5.51 5.51 0 00-.117.418c-.017.065-.037.13-.052.197a6.11 6.11 0 00-.075.453c-.009.062-.021.122-.028.185a6.104 6.104 0 006.069 6.757 6.104 6.104 0 006.069-6.757c-.007-.063-.02-.123-.028-.185a6.11 6.11 0 00-.075-.453c-.015-.066-.034-.132-.052-.197a4.87 4.87 0 00-.117-.418c-.021-.064-.047-.127-.07-.192a6.132 6.132 0 00-.158-.395c-.01-.022-.017-.046-.027-.068h-.006a6.1 6.1 0 00-5.536-3.545zm12.209-4.529c0-.87-.705-1.574-1.575-1.574h-3.151c-.87 0-1.575.704-1.575 1.574v3.152c0 .87.705 1.575 1.575 1.575h3.151c.87 0 1.575-.705 1.575-1.575V5.365zm0 8.074h-2.905c.224.816.345 1.675.345 2.561 0 5.329-4.32 9.648-9.649 9.648S6.474 21.329 6.474 16c0-.886.121-1.745.345-2.561H3.914v13.194c0 .871.705 1.577 1.575 1.577h21.268c.87 0 1.575-.705 1.575-1.577V13.439z" />
		</symbol>
		<symbol id="facebook-icon" viewBox="0 0 16 32">
			<title>
				facebook-icon
			</title>
			<path d="M14.879.245v5.072s-3.738-.373-4.674 1.06c-.512.783-.208 3.077-.254 4.724h4.959c-.418 1.925-.719 3.23-1.028 4.896H9.924v15.759h-6.87V16.059H.131v-4.958h2.891c.148-3.626.203-7.217 2.005-9.046C7.05-.002 8.981.246 14.879.246z" />
		</symbol>
		<symbol id="line_graph-icon" viewBox="0 0 32 32">
			<title>
				line_graph-icon
			</title>
			<path d="M30.5 32h-29A1.5 1.5 0 010 30.5V1.499A1.5 1.5 0 011.5 0h29A1.5 1.5 0 0132 1.499V30.5a1.5 1.5 0 01-1.5 1.5zM29 3H3v26h26V3zM5.215 16.239v-.002l4-2.498a1.497 1.497 0 011.625.035l.006-.008 6.631 4.42 7.638-5.391a1.5 1.5 0 111.763 2.426h.001l-8.501 6c-.246.179-.55.284-.878.284-.321 0-.618-.101-.861-.272l-6.657-4.438-3.135 1.96a1.5 1.5 0 11-1.632-2.516z" />
		</symbol>
		<symbol id="focus-icon" viewBox="0 0 32 32">
			<title>
				focus-icon
			</title>
			<path d="M30.5 32h-29A1.5 1.5 0 010 30.5v-29A1.5 1.5 0 011.5 0h29A1.5 1.5 0 0132 1.5v29a1.5 1.5 0 01-1.5 1.5zM29 3H3v26h26V3zM6.5 4.5H12a1.5 1.5 0 110 3H7.5V12a1.5 1.5 0 01-3 0V4.5h2zM4.5 20a1.5 1.5 0 113 0v4.499l4.5.001a1.5 1.5 0 110 3H4.5V20zM20 4.5h7.5V12a1.5 1.5 0 01-3 0V7.5H20a1.5 1.5 0 010-3zm0 20v-.001h4.5V20a1.5 1.5 0 113 0v7.5H20a1.5 1.5 0 010-3z" />
		</symbol>
		<symbol id="computer_ok-icon" viewBox="0 0 32 32">
			<title>
				computer_ok-icon
			</title>
			<path d="M30 25h-9.5v2.499l2 2.001v.5h-13v-.5l2-2.001V25H2a1.5 1.5 0 01-1.5-1.501V3.5A1.5 1.5 0 012 2h28a1.5 1.5 0 011.5 1.5v19.999A1.5 1.5 0 0130 25zm-.5-21h-27v17h27V4zM13 11c.414 0 .789.168 1.061.439l.939.939 2.939-2.939a1.5 1.5 0 112.122 2.122l-4 4a1.499 1.499 0 01-2.122 0l-2-2.001A1.5 1.5 0 0113 11z" />
		</symbol>
		<symbol id="book-icon" viewBox="0 0 32 32">
			<title>
				book-icon
			</title>
			<path d="M31.065 25.889l-14.471 5.988a1.489 1.489 0 01-1.188 0L.935 25.889A1.5 1.5 0 010 24.5v-23A1.5 1.5 0 012.073.114h.001l.002.001.013.005L16 5.876 29.911.12l.013-.005.003-.001A1.5 1.5 0 0132 1.5v23a1.5 1.5 0 01-.935 1.389zM14.5 8.503L3 3.744v19.753l11.5 4.759V8.503zM29 3.744L17.5 8.503v19.753L29 23.497V3.744zm-9.121 6.89l5.5-2.5a1.5 1.5 0 011.242 2.731l-5.5 2.5a1.5 1.5 0 01-1.242-2.731zm0 5.5l5.5-2.5a1.5 1.5 0 111.242 2.731l-5.5 2.5a1.5 1.5 0 01-1.242-2.731zm0 5.5l5.5-2.5a1.5 1.5 0 011.242 2.731l-5.5 2.5a1.5 1.5 0 01-1.242-2.731zM6 8c.221 0 .431.048.621.134l5.5 2.5a1.501 1.501 0 01-1.242 2.731l-5.5-2.5A1.5 1.5 0 016 8zm0 5.5c.221 0 .431.048.621.134l5.5 2.5a1.501 1.501 0 01-1.242 2.731l-5.5-2.5A1.5 1.5 0 016 13.5zM6 19c.221 0 .431.048.621.134l5.5 2.5a1.501 1.501 0 01-1.242 2.731l-5.5-2.5A1.5 1.5 0 016 19z" />
		</symbol>
		<symbol id="alarm-icon" viewBox="0 0 32 32">
			<title>
				alarm-icon
			</title>
			<path d="M30.74 10.003a15.723 15.723 0 00-8.243-8.243c1-.787 2.258-1.26 3.629-1.26A5.874 5.874 0 0132 6.374a5.846 5.846 0 01-1.26 3.629zM30.5 16.5c0 3.852-1.512 7.343-3.963 9.94l2.029 2.028a1.483 1.483 0 11-2.098 2.097l-2.178-2.178A14.426 14.426 0 0116 31c-3.079 0-5.928-.966-8.276-2.603L5.561 30.56a1.5 1.5 0 01-2.122-2.121l2.012-2.012C3.008 23.832 1.5 20.345 1.5 16.5 1.5 8.492 7.992 2 16 2s14.5 6.492 14.5 14.5zM16 5C9.649 5 4.5 10.148 4.5 16.5 4.5 22.851 9.649 28 16 28s11.5-5.149 11.5-11.5C27.5 10.148 22.351 5 16 5zm6 13h-6a1.5 1.5 0 01-1.5-1.5v-8a1.5 1.5 0 013 0v6.499H22A1.5 1.5 0 0122 18zM1.287 10.205A5.964 5.964 0 010 6.5a6 6 0 016-6c1.4 0 2.685.483 3.706 1.287a16.057 16.057 0 00-8.419 8.418z" />
		</symbol>
		<symbol id="cart-icon" viewBox="0 0 18 15">
			<title>
				cart-icon
			</title>
			<path d="M17.726,3.663 L17.727,3.663 L15.252,9.163 L15.252,9.163 C15.130,9.434 14.866,9.627 14.555,9.648 L14.555,9.648 L7.427,10.123 L7.839,11.299 L15.600,11.299 C16.511,11.299 17.250,12.038 17.250,12.950 C17.250,13.861 16.511,14.600 15.600,14.600 C14.689,14.600 13.950,13.861 13.950,12.950 L6.250,12.950 C6.250,13.861 5.511,14.600 4.600,14.600 C3.689,14.600 2.950,13.861 2.950,12.950 C2.950,12.038 3.689,11.299 4.600,11.299 L6.091,11.299 L2.915,2.225 L1.025,2.225 C0.569,2.225 0.200,1.855 0.200,1.400 C0.200,0.944 0.569,0.575 1.025,0.575 L3.500,0.575 C3.860,0.575 4.163,0.807 4.276,1.128 L4.279,1.127 L4.759,2.500 L16.975,2.500 C17.431,2.500 17.800,2.869 17.800,3.325 C17.800,3.445 17.773,3.559 17.726,3.663 ZM5.337,4.150 L6.862,8.507 L13.951,8.034 L15.699,4.150 L5.337,4.150 Z"/>
		</symbol>
		<symbol id="search-icon" viewBox="0 0 18 18">
			<title>
				search-icon
			</title>
			<path d="M17.317,14.983 C17.615,15.281 17.800,15.694 17.800,16.150 C17.800,17.061 17.061,17.800 16.150,17.800 C15.694,17.800 15.282,17.615 14.983,17.316 L14.983,17.316 L10.147,12.481 C9.165,13.061 8.023,13.400 6.800,13.400 C3.155,13.400 0.200,10.445 0.200,6.800 C0.200,3.155 3.155,0.200 6.800,0.200 C10.445,0.200 13.400,3.155 13.400,6.800 C13.400,8.023 13.061,9.165 12.481,10.147 L17.317,14.983 L17.317,14.983 ZM6.800,1.849 C4.066,1.849 1.850,4.066 1.850,6.800 C1.850,9.534 4.066,11.750 6.800,11.750 C9.534,11.750 11.750,9.534 11.750,6.800 C11.750,4.066 9.534,1.849 6.800,1.849 Z"/>
		</symbol>
	</defs>
</svg>
